elements/rpg-character/lib/hat/good.svg

<svg width="113" height="142" viewBox="0 0 113 142" fill="none" xmlns="http://www.w3.org/2000/svg">
<path d="M43 62V57H8V47H18V27H23V17H28V12H43V7H50V12H53H56V7H63V12H83V17H88V27H93V47H103V57H63V62H43Z" fill="#2EBD2B"/>
<path d="M50 22V12H56V22H50Z" fill="#0FA015"/>
<path d="M63 27V12H68V27H63Z" fill="#0FA015"/>
<path d="M43 27V12H38V27H43Z" fill="#0FA015"/>
<path d="M13 52V47H43V52H63V47H88V27H83V17H78V12H83V17H88V27H93V47H98V52H63V57H43V52H13Z" fill="#0FA015"/>
<path d="M8 47H13V27H18V17H23V12H28V7H43V2H50V7H56V2H63V7H83V12H88V17H93V27H98V47H103V57H63V52H98V47H93V27H88V17H83V12H63V7H56V12H50V7H43V12H28V17H23V27H18V47H13V52H43V57H8V47Z" fill="black"/>
<path d="M43 62V57H63V62H43Z" fill="black"/>
<path d="M23 47H18V27H23V17H28V12H38V17H28V27H23V47Z" fill="#6DEA6A"/>
<path d="M50 26.5H49.5V27V27.5H47H46.5V28V29H45.5H45V29.5V30.5H44H43.5V31V33.5H43H42.5V34V40V40.5H43H43.5V43V43.5H44H45V44.5V45H45.5H46.5V46V46.5H47H49.5V47V47.5H50H56H56.5V47V46.5H59H59.5V46V45H60.5H61V44.5V43.5H62H62.5V43V40.5H63H63.5V40V34V33.5H63H62.5V31V30.5H62H61V29.5V29H60.5H59.5V28V27.5H59H56.5V27V26.5H56H50Z" fill="#FDFBF4" stroke="#989898"/>
<path d="M59 32L51.3846 41L48 37.7273" stroke="black" stroke-width="3"/>
</svg>

<svg xmlns="http://www.w3.org/2000/svg" fill="none" width="113" height="142" viewBox="0 0 113 142"><path d="M43 62v-5H8V47h10V27h5V17h5v-5h15V7h7v5h6V7h7v5h20v5h5v10h5v20h10v10H63v5H43Z" fill="#2EBD2B"/><path d="M50 22V12h6v10h-6Zm13 5V12h5v15h-5Zm-20 0V12h-5v15h5Z" fill="#0FA015"/><path d="M13 52v-5h30v5h20v-5h25V27h-5V17h-5v-5h5v5h5v10h5v20h5v5H63v5H43v-5H13Z" fill="#0FA015"/><path d="M8 47h5V27h5V17h5v-5h5V7h15V2h7v5h6V2h7v5h20v5h5v5h5v10h5v20h5v10H63v-5h35v-5h-5V27h-5V17h-5v-5H63V7h-7v5h-6V7h-7v5H28v5h-5v10h-5v20h-5v5h30v5H8V47Zm35 15v-5h20v5H43Z" fill="#000"/><path d="M23 47h-5V27h5V17h5v-5h10v5H28v10h-5v20Z" fill="#6DEA6A"/><path d="M50 26.5h-.5v1h-3V29H45v1.5h-1.5v3h-1v7h1v3H45V45h1.5v1.5h3v1h7v-1h3V45H61v-1.5h1.5v-3h1v-7h-1v-3H61V29h-1.5v-1.5h-3v-1H50Z" fill="#FDFBF4" stroke="#989898"/><path d="m59 32-7.615 9L48 37.727" stroke="#000" stroke-width="3"/></svg>
